!!!COM: Palestrina, Giovanni Perluigi da
!!!OPR: Missa Virtute magna
!!!OMD: Sanctus
!!!OTL: Hosanna
**kern	**kern	**kern	**kern
*Ibass	*Itenor	*Icalto	*Icant
!Bassus	!Tenor	!Altus	!Cantus
*clefF4	*clefGv2	*clefG2	*clefG2
*k[]	*k[]	*k[]	*k[]
*G:mix	*G:mix	*G:mix	*G:mix
*M4/2	*M4/2	*M4/2	*M4/2
=83	=83	=83	=83
0r	1A	0r	[0a
.	[1d	.	.
=84	=84	=84	=84
1A	2d]	0r	1a_
.	2c	.	.
2d	2d	.	1a_
2c#	2e	.	.
=85	=85	=85	=85
1.d	1f	1r	0a]
.	1e	1A	.
2c	.	.	.
=86	=86	=86	=86
1B-	2r	1.d	1g
.	2d	.	.
1A	2f	.	1a
.	2e	2c	.
=87	=87	=87	=87
1r	2f	2d	0a
.	2c	2e	.
1D	2d	1f	.
.	[2A	.	.
=88	=88	=88	=88
1.A	4A]	1e	1.cc
.	4B	.	.
.	4c	.	.
.	4d	.	.
.	2.e	1r	.
2G	.	.	2b
.	4d	.	.
=89	=89	=89	=89
2A	2c	2r	2a
2B	2B	2d	1g
1c	1A	2e	.
.	.	2c	2f#
=90	=90	=90	=90
1B	1G	2.d	2g
.	.	.	2dd
.	.	4e	.
2.A	1r	4f	2cc
.	.	4g	.
.	.	[2a	4a
4G	.	.	4b
=91	=91	=91	=91
4A	0r	4a]	4cc
4B	.	4g	4dd
2c	.	2e	2.ee
2d	.	2f	.
.	.	.	4dd
2G	.	2g	[2dd
=92	=92	=92	=92
1A	0r	2e	2dd]
.	.	2.a	2cc
1r	.	.	2.b
.	.	4g	.
.	.	[2g	.
.	.	.	8a
.	.	.	8g
=93	=93	=93	=93
1D	[0d	2g]	1a
.	.	2f#	.
[1G	.	1g	2g
.	.	.	[2b-
=94	=94	=94	=94
2G]	1d_	0r	2b-]
2F	.	.	2a
2G	1d_	.	2g
[2B-	.	.	2f
=95	=95	=95	=95
4B-]	0d]	1r	1b-
4A	.	.	.
1G	.	.	.
.	.	2r	1a
2F	.	2d	.
=96	=96	=96	=96
1E	1c	1.g	0r
1D	1d	.	.
.	.	2f	.
=97	=97	=97	=97
2G	[0d	2g	0r
2F#	.	2a	.
1G	.	1b-	.
=98	=98	=98	=98
0D	1d]	[0a	2r
.	.	.	2a
.	[1f	.	[1dd
=99	=99	=99	=99
2.A	2f]	1a]	2dd]
.	2e	.	2cc
4G	.	.	.
2F	2d	1r	2dd
2E	[2c	.	2ee
=100	=100	=100	=100
1D	2c]	0r	1.ff
.	2B	.	.
[1C	1c	.	.
.	.	.	4ee
.	.	.	4dd
=101	=101	=101	=101
1C]	2r	[0g	1.ee
.	2G	.	.
2r	[1c	.	.
2C	.	.	4dd
.	.	.	4cc
=102	=102	=102	=102
1G	2c]	1g_	2dd
.	2B	.	2dd
2C	2c	1g_	2ee
2G	2d	.	2b
=103	=103	=103	=103
1C	2.e	0g]	2.cc
.	4d	.	4dd
1r	2c	.	2ee
.	2B	.	2dd
=104	=104	=104	=104
1D	1A	1f	1dd
[1G	2r	2g	[1dd
.	2G	[2b-	.
=105	=105	=105	=105
2G]	1.d	2b-]	1dd]
2F	.	2a	.
2G	.	2g	1r
2A	2c	[2f	.
=106	=106	=106	=106
2B-	2d	4f]	2r
.	.	4e	.
4A	2e	2c	1a
4G	.	.	.
2F	1f	1d	.
2D	.	.	[2dd
=107	=107	=107	=107
1A	2e	2r	2dd]
.	2.f	2A	2cc
1r	.	[1a	2dd
.	4e	.	.
.	2c	.	2ee
=108	=108	=108	=108
1D	1d	1a]	2.ff
.	.	.	4ee
[1A	1e	[1a	4cc
.	.	.	4dd
.	.	.	[2ee
=109	=109	=109	=109
2A]	2.f	1a]	4ee]
.	.	.	4dd
2F	.	.	1dd
.	8e	.	.
.	8d	.	.
2G	1e	1r	.
2A	.	.	2cc#
=110	=110	=110	=110
2.B-	2d	2r	[0dd
.	2G	2d	.
4A	.	.	.
1G	1B-	[1g	.
=111	=111	=111	=111
2D	1A	2g]	1dd_
2D	.	2f	.
2G	1r	2g	1dd_
2F	.	2a	.
=112	=112	=112	=112
2G	2r	2.b-	0dd]
2.B-	2G	.	.
.	.	4a	.
.	2d	4f	.
4G	.	4g	.
2F	2d	[2a	.
=113	=113	=113	=113
2G	2B	4a]	2r
.	.	4g	.
2C	2c	1g	2g
1D	1A	.	[1dd
.	.	2f#	.
=114	=114	=114	=114
1G	2G	[0g	2dd]
.	2G	.	2b
2r	2c	.	2cc
2G	2B	.	2dd
=115	=115	=115	=115
2.c	4c	0g]	2.ee
.	4d	.	.
.	4e	.	.
4B	4f	.	4dd
4G	2g	.	4b
4A	.	.	4cc
2B	2d	.	2dd
=116	=116	=116	=116
2c	2.e	[0g	4dd
.	.	.	4cc
2C	.	.	1cc
.	8d	.	.
.	8c	.	.
2G	1d	.	.
2G	.	.	2b
=117	=117	=117	=117
0C	0e	0g]	0cc
=118	=118	=118	=118
[0G	[0d	[0g	[0b
=119	=119	=119	=119
0G]	0d]	0g]	0b]
==	==	==	==
*-	*-	*-	*-
!!!CDT: 1525/^1526/-1594/2/2
!!!OCY: Italia
!!!AGN: Mass (Parody)
!!!AST: renaissance, vocal
!!!ASW: Motet 1532 (Lasson)
!!!PWK: Masses, Book I
!!!RNB: Cadence finals: D
!!!YOR: Le Opere Complete, v. 1, p. 62
!!!YOO: Rome, Italy: Fratelli Scalera
!!!END: 1992//
!!!EED: John Miller
!!!YEC: Copyright 2000, John Miller
!!!YEN: United States of America
!!!YEM: Rights to all derivative electronic formats reserved.
!!!YEM: Refer to licensing agreement for further details.
!!!YEM: This file must be accompanied by the licensing agreement.
!!!YEM: A copy of the licensing agreement may be found at http://www.music-cog.ohio-state.edu/HumdrumDatabases/Palestrina/license.txt
!!!EMD: converted to Humdrum by Bret Aarden
